src/next/cmd/ru/lc_underline.svg

<svg height="24" viewBox="0 0 6.3499999 6.3500002" width="24" xmlns="http://www.w3.org/2000/svg" xmlns:xlink="http://www.w3.org/1999/xlink"><linearGradient id="a" gradientUnits="userSpaceOnUse" x1="20.221542" x2="20.592364" y1="28.495039" y2="6.444707"><stop offset="0" stop-color="#555"/><stop offset="1"/></linearGradient><linearGradient id="b" gradientUnits="userSpaceOnUse" x1="18.195423" x2="18.195423" y1="4.314551" y2="15.675118"><stop offset="0" stop-color="#3b3e22"/><stop offset="1" stop-color="#454545" stop-opacity="0"/></linearGradient><g transform="matrix(.171875 0 0 .171875 .264624 .264542)"><path d="m11.474723 13.590302q0 1.708681 1.035564 2.847802 1.087343 1.087343 2.951359 1.087343 1.139121 0 2.433577-.414226 1.346233-.414226 2.071129-.828452l.724895-.362447v-6.4722784q0-2.0193508-.673117-2.7960242-.621339-.7766733-2.64069-.9837862v-.7766734h10.976984v.7766734q-2.071129.2588911-2.692468.9837862-.621338.673117-.621338 2.7960242v13.4623384q0 2.692468.621338 3.469141.621339.776674 2.692468 1.035565v.776673h-10.976984v-.776673q2.122908-.258891 2.692468-.983787.621339-.724895.621339-3.520919v-5.643826q-2.899581 1.812237-6.472278 1.812237-1.035565 0-2.122908-.207112-1.087342-.258892-2.2782415-.776674-1.1908992-.56956-1.9675725-1.708681-.7248952-1.139121-.7248952-2.692468v-4.2458144q-.0517782-2.1746855-.6731169-2.8478024-.6213387-.6731169-2.6406895-.932008v-.7766734h10.9769836v.7766734q-2.019351.2588911-2.692468.9837862-.621338.673117-.621338 2.7960242z" fill="url(#a)" stroke-width="1.230085" transform="scale(1.0465633 .95550838)"/><rect fill="#010101" height="1.539372" rx=".472075" ry=".607224" stroke-width=".264583" width="27.708702" x="3.078745" y="29.24855"/><path d="m24.367188 20.25c1.155925.540953 2.39911 1.000051 3.236328 1.828125 2.644953 2.616068 3.271308 6.50253 3.414062 11.976563a2.8332525 2.5867489 0 0 1 0 .0625v15.333984c0 3.320713.822866 6.010376 2.404297 8.294922 1.781901 2.374288 3.947625 4.085587 6.619141 5.255859 2.961905 1.171341 5.768234 2.039253 8.414062 2.617188 2.676472.461085 5.269939.689453 7.78711.689453 1.523003 0 2.859205-.402866 4.326171-.521485-5.203254-.114946-9.779791-1.579157-13.085937-4.597656a2.8332525 2.5867489 0 0 1 -.09375-.08594c-3.205308-3.219072-4.835934-7.389696-4.835938-12.025388v-14.960937c0-5.363112.568792-9.234383 3.212891-11.84961a2.8332525 2.5867489 0 0 1 0-.0078c.908906-.893671 2.237511-1.424313 3.507813-2.009778zm53.568359 0c1.246442.613258 2.559152 1.163189 3.416015 2.130859 2.537258 2.704525 3.328126 6.612716 3.328126 11.736329v23.375a2.8332525 2.5867489 0 0 1 -1.56836 2.314453l-.277344.126953a2.8332525 2.5867489 0 0 1 1.845704 2.419922v11.871093a84.362449 34.9086 0 0 0 11.535156-1.802734v-38.304687c0-5.339784.576799-9.191921 3.191406-11.806641.88185-.928558 2.19516-1.469065 3.46094-2.060547zm-6.310547 44.007812c-.0039.0011-.0039.0048-.0078.0059l.0293-.0059c-.0078.0023-.01366-.0023-.02148 0zm-2.263672.351563c-.506543.118828-1.002649.193753-1.496094.265625.509253-.06445 1.015277-.137696 1.496094-.265625zm-1.496094.265625c-.658576.08335-1.324074.150237-1.964843.271484.656284-.09271 1.307676-.175765 1.964843-.271484z" fill="url(#b)" stroke-width="4.64914" transform="scale(.26458334)"/></g></svg>

<?xml version="1.0" encoding="UTF-8" standalone="no"?>
<svg
   xmlns:dc="http://purl.org/dc/elements/1.1/"
   xmlns:cc="http://creativecommons.org/ns#"
   xmlns:rdf="http://www.w3.org/1999/02/22-rdf-syntax-ns#"
   xmlns:svg="http://www.w3.org/2000/svg"
   xmlns="http://www.w3.org/2000/svg"
   xmlns:xlink="http://www.w3.org/1999/xlink"
   xmlns:sodipodi="http://sodipodi.sourceforge.net/DTD/sodipodi-0.dtd"
   xmlns:inkscape="http://www.inkscape.org/namespaces/inkscape"
   height="24"
   viewBox="0 0 6.3499999 6.3500002"
   width="24"
   version="1.1"
   id="svg20"
   sodipodi:docname="lc_underline.svg"
   inkscape:version="0.92.4 (unknown)"
   inkscape:export-filename="/home/rizmut/Dokumen/Rizmut/Github/libreoffice-style-karasa-jaga/build/next/cmd/ru/lc_underline.png"
   inkscape:export-xdpi="96"
   inkscape:export-ydpi="96">
  <metadata
     id="metadata26">
    <rdf:RDF>
      <cc:Work
         rdf:about="">
        <dc:format>image/svg+xml</dc:format>
        <dc:type
           rdf:resource="http://purl.org/dc/dcmitype/StillImage" />
        <dc:title></dc:title>
      </cc:Work>
    </rdf:RDF>
  </metadata>
  <defs
     id="defs24">
    <linearGradient
       inkscape:collect="always"
       xlink:href="#a"
       id="linearGradient23"
       gradientUnits="userSpaceOnUse"
       gradientTransform="matrix(1.203077,0,0,1.203077,-2.632215,-326.19925)"
       x1="18.996088"
       y1="294.8226"
       x2="19.304316"
       y2="276.49432" />
    <linearGradient
       inkscape:collect="always"
       xlink:href="#b"
       id="linearGradient845"
       x1="69.8172"
       y1="5.8199005"
       x2="69.8172"
       y2="58.1828"
       gradientUnits="userSpaceOnUse" />
  </defs>
  <sodipodi:namedview
     pagecolor="#ffffff"
     bordercolor="#666666"
     borderopacity="1"
     objecttolerance="10"
     gridtolerance="10"
     guidetolerance="10"
     inkscape:pageopacity="0"
     inkscape:pageshadow="2"
     inkscape:window-width="1366"
     inkscape:window-height="706"
     id="namedview22"
     showgrid="true"
     inkscape:zoom="39.833333"
     inkscape:cx="6.9566774"
     inkscape:cy="15.348401"
     inkscape:window-x="0"
     inkscape:window-y="0"
     inkscape:window-maximized="1"
     inkscape:current-layer="g831">
    <inkscape:grid
       type="xygrid"
       id="grid17"
       spacingx="0.13229167"
       spacingy="0.13229167" />
  </sodipodi:namedview>
  <linearGradient
     id="a"
     gradientUnits="userSpaceOnUse"
     x1="18.996088"
     x2="20.22575"
     y1="294.8226"
     y2="266.54037"
     gradientTransform="matrix(0.7835169,0,0,0.7835169,2.9123897,-203.09999)">
    <stop
       offset="0"
       stop-color="#555"
       id="stop2" />
    <stop
       offset="1"
       id="stop4" />
  </linearGradient>
  <linearGradient
     id="b"
     gradientUnits="userSpaceOnUse"
     x1="53.856667"
     x2="72.864624"
     y1="1.845663"
     y2="61.042988"
     gradientTransform="matrix(0.21695833,0,0,0.21695833,3.048,3.0518754)">
    <stop
       offset="0"
       stop-color="#3b3e22"
       id="stop7" />
    <stop
       offset="1"
       stop-color="#454545"
       stop-opacity="0"
       id="stop9" />
  </linearGradient>
  <g
     id="g831"
     transform="matrix(0.171875,0,0,0.171875,0.26462416,0.26454228)">
    <g
       aria-label="ч"
       transform="scale(1.0465633,0.95550838)"
       style="font-size:49.20341492px;font-family:sans-serif;letter-spacing:0;word-spacing:0;fill:url(#linearGradient23);stroke-width:1.2300849"
       id="text21">
      <path
         d="m 11.474723,13.590302 q 0,1.708681 1.035564,2.847802 1.087343,1.087343 2.951359,1.087343 1.139121,0 2.433577,-0.414226 1.346233,-0.414226 2.071129,-0.828452 l 0.724895,-0.362447 V 9.4480436 q 0,-2.0193508 -0.673117,-2.7960242 Q 19.396791,5.8753461 17.37744,5.6682332 V 4.8915598 h 10.976984 v 0.7766734 q -2.071129,0.2588911 -2.692468,0.9837862 -0.621338,0.673117 -0.621338,2.7960242 V 22.910382 q 0,2.692468 0.621338,3.469141 0.621339,0.776674 2.692468,1.035565 v 0.776673 H 17.37744 v -0.776673 q 2.122908,-0.258891 2.692468,-0.983787 0.621339,-0.724895 0.621339,-3.520919 v -5.643826 q -2.899581,1.812237 -6.472278,1.812237 -1.035565,0 -2.122908,-0.207112 Q 11.008719,18.612789 9.8178195,18.095007 8.6269203,17.525447 7.850247,16.386326 7.1253518,15.247205 7.1253518,13.693858 V 9.4480436 Q 7.0735736,7.2733581 6.4522349,6.6002412 5.8308962,5.9271243 3.8115454,5.6682332 V 4.8915598 H 14.788529 v 0.7766734 q -2.019351,0.2588911 -2.692468,0.9837862 -0.621338,0.673117 -0.621338,2.7960242 z"
         style="font-style:normal;font-variant:normal;font-weight:normal;font-stretch:normal;font-size:51.77822495px;font-family:FreeSerif;-inkscape-font-specification:FreeSerif;fill:url(#linearGradient23);stroke-width:1.2300849"
         id="path833" />
    </g>
    <rect
       id="rect21"
       y="29.24855"
       x="3.0787446"
       width="27.708702"
       ry="0.60722405"
       rx="0.47207487"
       height="1.5393723"
       style="fill:#010101;stroke-width:0.26458335" />
    <path
       id="text27"
       transform="scale(0.26458334)"
       d="m 24.367188,20.25 c 1.155925,0.540953 2.39911,1.000051 3.236328,1.828125 2.644953,2.616068 3.271308,6.50253 3.414062,11.976563 a 2.8332525,2.5867489 0 0 1 0,0.0625 v 15.333984 c 0,3.320713 0.822866,6.010376 2.404297,8.294922 1.781901,2.374288 3.947625,4.085587 6.619141,5.255859 2.961905,1.171341 5.768234,2.039253 8.414062,2.617188 2.676472,0.461085 5.269939,0.689453 7.78711,0.689453 1.523003,0 2.859205,-0.402866 4.326171,-0.521485 -5.203254,-0.114946 -9.779791,-1.579157 -13.085937,-4.597656 a 2.8332525,2.5867489 0 0 1 -0.09375,-0.08594 C 44.183364,57.884441 42.552738,53.713817 42.552734,49.078125 V 34.117188 c 0,-5.363112 0.568792,-9.234383 3.212891,-11.84961 a 2.8332525,2.5867489 0 0 1 0,-0.0078 C 46.674531,21.366107 48.003136,20.835465 49.273438,20.25 Z m 53.568359,0 c 1.246442,0.613258 2.559152,1.163189 3.416015,2.130859 2.537258,2.704525 3.328126,6.612716 3.328126,11.736329 v 23.375 a 2.8332525,2.5867489 0 0 1 -1.56836,2.314453 l -0.277344,0.126953 a 2.8332525,2.5867489 0 0 1 1.845704,2.419922 V 74.224609 A 84.362449,34.9086 0 0 0 96.214844,72.421875 V 34.117188 c 0,-5.339784 0.576799,-9.191921 3.191406,-11.806641 0.88185,-0.928558 2.19516,-1.469065 3.46094,-2.060547 z M 71.625,64.257812 c -0.0039,0.0011 -0.0039,0.0048 -0.0078,0.0059 l 0.0293,-0.0059 c -0.0078,0.0023 -0.01366,-0.0023 -0.02148,0 z m -2.263672,0.351563 c -0.506543,0.118828 -1.002649,0.193753 -1.496094,0.265625 0.509253,-0.06445 1.015277,-0.137696 1.496094,-0.265625 z M 67.865234,64.875 c -0.658576,0.08335 -1.324074,0.150237 -1.964843,0.271484 0.656284,-0.09271 1.307676,-0.175765 1.964843,-0.271484 z"
       style="font-size:49.20341492px;font-family:sans-serif;letter-spacing:0;word-spacing:0;fill:url(#linearGradient845);fill-opacity:1;stroke-width:4.64913988"
       inkscape:connector-curvature="0" />
  </g>
</svg>
